desktop/renderer-app/src/pages/UserSettingPage/icons/logo.svg

<?xml version="1.0" encoding="UTF-8"?>
<svg width="80px" height="80px" viewBox="0 0 80 80" version="1.1" xmlns="http://www.w3.org/2000/svg" xmlns:xlink="http://www.w3.org/1999/xlink">
    <title>编组 3</title>
    <g id="Flat-单窗口" stroke="none" stroke-width="1" fill="none" fill-rule="evenodd">
        <g id="设置_关于我们（单窗口）" transform="translate(-596.000000, -195.000000)">
            <g id="编组-5" transform="translate(593.000000, 195.000000)">
                <g id="编组-3" transform="translate(3.000000, 0.000000)">
                    <path d="M57.566224,0.499915819 C59.9430307,0.543535814 60.2711805,0.552428058 60.4573508,0.559555666 L60.4957661,0.561068014 C64.0483427,0.724420755 66.1500192,1.07733976 67.8456863,1.62997081 C68.5431666,1.86622666 69.0156712,2.05696053 69.4718088,2.26576576 C73.3711838,4.31413641 75.586904,6.51355216 77.0931436,9.32340402 C78.337853,12.2423448 78.4296875,12.5213495 78.5007908,12.7801519 C78.8356287,14.2580083 78.9459253,14.8492508 79.0194135,15.3582424 L79.0456128,15.5468297 L79.3414356,60.8705294 C78.9751418,64.8851216 78.8872978,65.4335177 78.7875852,65.9271199 C78.4474955,67.3249437 78.3648602,67.6128664 78.2878595,67.8486833 C75.6094956,73.3497979 73.4129343,75.5825891 70.5974747,77.0924579 C67.6770282,78.3378193 67.3979686,78.4296745 67.1391187,78.5007908 C65.4765302,78.8774834 64.9360625,78.969991 64.3724409,79.0456128 L64.3724409,79.0456128 L19.0487412,79.3414356 C15.3510905,79.0040597 14.5939455,78.9029034 14.1117596,78.8111223 L14.0312953,78.7954379 L14.0312953,78.7954379 L13.9921507,78.7875852 C12.5943269,78.4474955 12.3064042,78.3648602 12.0705649,78.2878486 C6.56575809,75.6076841 4.33367076,73.4099691 2.8238733,70.5917535 C1.23140882,67.0266896 0.716058029,64.6232678 0.554884427,60.3365592 C0.528485547,59.5415626 0.518667075,59.1257206 0.511819449,58.6947432 C0.505396561,58.1803786 0.502174186,57.8771837 0.500818821,57.6346055 L0.5,57.3442692 L0.499915819,22.3530466 C0.543535814,19.9762399 0.552428058,19.6480901 0.559555666,19.4619198 L0.561068014,19.4235045 C0.724420755,15.8709279 1.07733976,13.7692514 1.62997081,12.0735843 C1.86622666,11.376104 2.05696053,10.9035994 2.26577072,10.4474524 C4.31526895,6.54593404 6.51597914,4.32992339 9.32817112,2.82358117 C12.8928749,1.2313458 15.2962649,0.716048173 19.5827114,0.554884427 C20.377708,0.528485547 20.79355,0.518667075 21.2245274,0.511819449 C21.738892,0.505396561 22.0420869,0.502174186 22.2846651,0.500818821 L22.5750014,0.5 Z" id="路径备份" stroke="#DBE1EA" fill="#FFFFFF"></path>
                    <g id="编组-4" transform="translate(14.827723, 14.827723)">
                        <path d="M6.84356436,36.4990099 L13.6871287,36.4990099 L13.6871287,36.4990099 L13.6871287,43.3425743 C13.6871287,47.1221705 10.6231606,50.1861386 6.84356436,50.1861386 C3.06396813,50.1861386 1.18590597e-13,47.1221705 1.1812773e-13,43.3425743 C1.17664863e-13,39.562978 3.06396813,36.4990099 6.84356436,36.4990099 Z" id="矩形备份-2" fill="#D1E1FA"></path>
                        <path d="M11.4059406,18.249505 L31.9366337,18.249505 L31.9366337,18.249505 L31.9366337,25.0930693 C31.9366337,28.8726655 28.8726655,31.9366337 25.0930693,31.9366337 L11.4059406,31.9366337 C7.62634437,31.9366337 4.56237624,28.8726655 4.56237624,25.0930693 C4.56237624,21.3134731 7.62634437,18.249505 11.4059406,18.249505 Z" id="矩形备份" fill="#83B1FD"></path>
                        <path d="M15.9683168,1.1812773e-13 L50.1861386,1.1812773e-13 L50.1861386,1.1812773e-13 L50.1861386,6.84356436 C50.1861386,10.6231606 47.1221705,13.6871287 43.3425743,13.6871287 L15.9683168,13.6871287 C12.1887206,13.6871287 9.12475248,10.6231606 9.12475248,6.84356436 C9.12475248,3.06396813 12.1887206,1.1882203e-13 15.9683168,1.1812773e-13 Z" id="矩形" fill="#3381FF"></path>
                    </g>
                </g>
            </g>
        </g>
    </g>
</svg>

<svg width="80" height="80" xmlns="http://www.w3.org/2000/svg"><g fill="none" fill-rule="evenodd"><path d="M57.566.5c2.377.044 2.705.052 2.891.06l.039.001c3.552.163 5.654.516 7.35 1.069.697.236 1.17.427 1.626.636 3.9 2.048 6.115 4.248 7.621 7.057 1.245 2.92 1.337 3.198 1.408 3.457.335 1.478.445 2.07.518 2.578l.027.189.295 45.324c-.366 4.014-.454 4.563-.553 5.056-.34 1.398-.423 1.686-.5 1.922-2.679 5.5-4.875 7.734-7.69 9.243-2.921 1.246-3.2 1.338-3.459 1.409-1.662.376-2.203.469-2.767.545l-45.323.295c-3.698-.337-4.455-.438-4.937-.53l-.08-.016-.04-.007c-1.398-.34-1.686-.423-1.921-.5-5.505-2.68-7.737-4.878-9.247-7.696C1.23 67.027.716 64.623.554 60.337a87.43 87.43 0 0 1-.053-2.702l-.001-.29V22.352c.044-2.377.052-2.705.06-2.891l.001-.038c.163-3.553.516-5.655 1.069-7.35.236-.698.427-1.17.636-1.627 2.05-3.901 4.25-6.117 7.062-7.623C12.893 1.23 15.296.716 19.583.554a87.43 87.43 0 0 1 2.702-.053l.29-.001Z" stroke="#DBE1EA" fill="#FFF"/><path d="M21.671 51.327h6.844v6.843a6.844 6.844 0 1 1-6.844-6.843Z" fill="#D1E1FA"/><path d="M26.234 33.077h20.53v6.844a6.844 6.844 0 0 1-6.843 6.843H26.234a6.844 6.844 0 0 1 0-13.687Z" fill="#83B1FD"/><path d="M30.796 14.828h34.218v6.843a6.844 6.844 0 0 1-6.844 6.844H30.796a6.844 6.844 0 0 1 0-13.687Z" fill="#3381FF"/></g></svg>
